static/img/in-field/radio-button-label-right-dark.svg

<svg width="121" height="56" viewBox="0 0 121 56" fill="none" xmlns="http://www.w3.org/2000/svg">
<path fill-rule="evenodd" clip-rule="evenodd" d="M28.4998 15.1667C21.1398 15.1667 15.1665 21.14 15.1665 28.5C15.1665 35.86 21.1398 41.8333 28.4998 41.8333C35.8598 41.8333 41.8332 35.86 41.8332 28.5C41.8332 21.14 35.8598 15.1667 28.4998 15.1667ZM28.4998 21.8333C24.8198 21.8333 21.8332 24.82 21.8332 28.5C21.8332 32.18 24.8198 35.1667 28.4998 35.1667C32.1798 35.1667 35.1665 32.18 35.1665 28.5C35.1665 24.82 32.1798 21.8333 28.4998 21.8333ZM17.8332 28.5C17.8332 34.3933 22.6065 39.1667 28.4998 39.1667C34.3932 39.1667 39.1665 34.3933 39.1665 28.5C39.1665 22.6067 34.3932 17.8333 28.4998 17.8333C22.6065 17.8333 17.8332 22.6067 17.8332 28.5Z" fill="#019AEB"/>
<path d="M58.1592 37V21.2949H59.9854V35.3457H66.9141V37H58.1592ZM76.8105 37L76.4561 35.3242H76.3701C75.7829 36.0618 75.1956 36.5632 74.6084 36.8281C74.0283 37.0859 73.3014 37.2148 72.4277 37.2148C71.2604 37.2148 70.3438 36.9141 69.6777 36.3125C69.0189 35.7109 68.6895 34.8551 68.6895 33.7451C68.6895 31.3675 70.5908 30.1214 74.3936 30.0068L76.3916 29.9424V29.2119C76.3916 28.2881 76.1911 27.6077 75.79 27.1709C75.3962 26.7269 74.7624 26.5049 73.8887 26.5049C72.9076 26.5049 71.7975 26.8057 70.5586 27.4072L70.0107 26.043C70.5908 25.7279 71.2246 25.4808 71.9121 25.3018C72.6068 25.1227 73.3014 25.0332 73.9961 25.0332C75.3997 25.0332 76.4382 25.3447 77.1113 25.9678C77.7917 26.5908 78.1318 27.5898 78.1318 28.9648V37H76.8105ZM72.7822 35.7432C73.8923 35.7432 74.7624 35.4388 75.3926 34.8301C76.0299 34.2214 76.3486 33.3691 76.3486 32.2734V31.21L74.5654 31.2852C73.1475 31.3353 72.1234 31.5573 71.4932 31.9512C70.8701 32.3379 70.5586 32.943 70.5586 33.7666C70.5586 34.4111 70.752 34.9017 71.1387 35.2383C71.5326 35.5749 72.0804 35.7432 72.7822 35.7432ZM87.5449 25.0332C89.0918 25.0332 90.2913 25.5632 91.1436 26.623C92.0029 27.6758 92.4326 29.1689 92.4326 31.1025C92.4326 33.0361 91.9993 34.54 91.1328 35.6143C90.2734 36.6813 89.0775 37.2148 87.5449 37.2148C86.7786 37.2148 86.0768 37.0752 85.4395 36.7959C84.8092 36.5094 84.2793 36.0726 83.8496 35.4854H83.7207L83.3447 37H82.0664V20.2852H83.8496V24.3457C83.8496 25.2552 83.821 26.0716 83.7637 26.7949H83.8496C84.6803 25.6204 85.9121 25.0332 87.5449 25.0332ZM87.2871 26.5264C86.0697 26.5264 85.1924 26.8773 84.6553 27.5791C84.1182 28.2738 83.8496 29.4482 83.8496 31.1025C83.8496 32.7568 84.1253 33.9421 84.6768 34.6582C85.2282 35.3672 86.1126 35.7217 87.3301 35.7217C88.4258 35.7217 89.2422 35.3242 89.7793 34.5293C90.3164 33.7272 90.585 32.5778 90.585 31.0811C90.585 29.5485 90.3164 28.4062 89.7793 27.6543C89.2422 26.9023 88.4115 26.5264 87.2871 26.5264ZM100.782 37.2148C99.042 37.2148 97.667 36.6849 96.6572 35.625C95.6546 34.5651 95.1533 33.0934 95.1533 31.21C95.1533 29.3122 95.6188 27.8047 96.5498 26.6875C97.488 25.5703 98.7448 25.0117 100.32 25.0117C101.796 25.0117 102.963 25.4987 103.822 26.4727C104.682 27.4395 105.111 28.7178 105.111 30.3076V31.4355H97.001C97.0368 32.8177 97.3841 33.8669 98.043 34.583C98.709 35.2992 99.6436 35.6572 100.847 35.6572C102.114 35.6572 103.368 35.3923 104.606 34.8623V36.4521C103.976 36.7243 103.378 36.9176 102.812 37.0322C102.254 37.154 101.577 37.2148 100.782 37.2148ZM100.299 26.5049C99.3535 26.5049 98.598 26.8128 98.0322 27.4287C97.4736 28.0446 97.1442 28.8968 97.0439 29.9854H103.199C103.199 28.861 102.949 28.0016 102.447 27.4072C101.946 26.8057 101.23 26.5049 100.299 26.5049ZM110.195 37H108.412V20.2852H110.195V37Z" fill="#fff"/>
</svg>

<svg width="121" height="56" fill="none" xmlns="http://www.w3.org/2000/svg"><path fill-rule="evenodd" clip-rule="evenodd" d="M28.5 15.167c-7.36 0-13.334 5.973-13.334 13.333S21.14 41.833 28.5 41.833c7.36 0 13.333-5.973 13.333-13.333S35.86 15.167 28.5 15.167zm0 6.666a6.67 6.67 0 00-6.667 6.667 6.67 6.67 0 006.667 6.667 6.67 6.67 0 006.666-6.667 6.67 6.67 0 00-6.666-6.667zM17.833 28.5c0 5.893 4.774 10.667 10.667 10.667S39.166 34.393 39.166 28.5 34.394 17.833 28.5 17.833c-5.893 0-10.667 4.774-10.667 10.667z" fill="#019AEB"/><path d="M58.16 37V21.295h1.825v14.05h6.93V37h-8.756zm18.65 0l-.354-1.676h-.086c-.587.738-1.174 1.24-1.762 1.504-.58.258-1.307.387-2.18.387-1.168 0-2.084-.3-2.75-.903-.66-.601-.989-1.457-.989-2.567 0-2.377 1.902-3.624 5.705-3.738l1.998-.065v-.73c0-.924-.2-1.604-.602-2.041-.394-.444-1.028-.666-1.901-.666-.981 0-2.091.3-3.33.902l-.548-1.364a8.4 8.4 0 011.901-.741 8.318 8.318 0 012.084-.269c1.404 0 2.442.312 3.115.935.68.623 1.02 1.622 1.02 2.997V37h-1.32zm-4.028-1.257c1.11 0 1.98-.304 2.61-.913.638-.609.957-1.46.957-2.557V31.21l-1.784.075c-1.418.05-2.442.272-3.072.666-.623.387-.934.992-.934 1.816 0 .644.193 1.135.58 1.471.394.337.941.505 1.643.505zm14.763-10.71c1.547 0 2.746.53 3.599 1.59.859 1.053 1.289 2.546 1.289 4.48 0 1.933-.434 3.437-1.3 4.511-.86 1.067-2.055 1.6-3.588 1.6-.766 0-1.468-.139-2.106-.418a4.002 4.002 0 01-1.59-1.31h-.128L83.345 37h-1.279V20.285h1.784v4.06c0 .91-.029 1.727-.086 2.45h.086c.83-1.175 2.062-1.762 3.695-1.762zm-.258 1.493c-1.217 0-2.095.351-2.632 1.053-.537.695-.805 1.87-.805 3.523 0 1.655.275 2.84.827 3.556.551.71 1.436 1.064 2.653 1.064 1.096 0 1.912-.398 2.45-1.193.536-.802.805-1.951.805-3.448 0-1.532-.269-2.675-.806-3.427-.537-.752-1.367-1.128-2.492-1.128zm13.495 10.689c-1.74 0-3.115-.53-4.125-1.59-1.002-1.06-1.504-2.532-1.504-4.415 0-1.898.466-3.405 1.397-4.523.938-1.117 2.195-1.675 3.77-1.675 1.476 0 2.643.487 3.502 1.46.86.967 1.289 2.246 1.289 3.836v1.128h-8.11c.036 1.382.383 2.43 1.042 3.147.666.716 1.6 1.074 2.804 1.074 1.267 0 2.521-.265 3.759-.795v1.59a9.104 9.104 0 01-1.794.58c-.558.122-1.235.183-2.03.183zm-.483-10.71c-.946 0-1.701.308-2.267.924-.558.616-.888 1.468-.988 2.556h6.155c0-1.124-.25-1.983-.752-2.578-.501-.601-1.217-.902-2.148-.902zM110.195 37h-1.783V20.285h1.783V37z" fill="#fff"/></svg>
